X: 28707
T: My Darling Asleep
R: jig
M: 6/8
K: Dmajor
|:fed cAA|BGB AFA|DFA daf|gfg eag|
fed cAA|BGB AFA|DFA daf|1 gec d2e:|2 gec d2A||
|:dfa afa|dfa bag|fef daf|gfg eag|
fed cAA|BGB AFA|DFA dfa|1 gec d2A:|2 gec d2e||

